assets/landing_icons/stats_icons/discord.svg

<svg width="16" height="16" viewBox="0 0 16 16" fill="none" xmlns="http://www.w3.org/2000/svg">
<path d="M12.8689 3.58517C11.9563 3.16775 10.987 2.86353 9.97527 2.69373C9.84793 2.91305 9.7064 3.2102 9.60733 3.44367C8.53127 3.28802 7.46293 3.28802 6.4017 3.44367C6.30265 3.2102 6.15407 2.91305 6.03379 2.69373C5.01501 2.86353 4.04574 3.16775 3.13943 3.58517C1.30702 6.2878 0.811772 8.92673 1.0594 11.5303C2.27629 12.4147 3.45075 12.9524 4.60467 13.3062C4.88767 12.9241 5.14237 12.5137 5.3617 12.0822C4.94427 11.9265 4.54807 11.7355 4.16603 11.5091C4.26508 11.4384 4.36413 11.3606 4.45611 11.2827C6.76253 12.3369 9.26073 12.3369 11.5388 11.2827C11.6379 11.3606 11.7299 11.4384 11.8289 11.5091C11.4469 11.7355 11.0507 11.9265 10.6333 12.0822C10.8526 12.5137 11.1073 12.9241 11.3903 13.3062C12.5435 12.9524 13.725 12.4147 14.9355 11.5303C15.2397 8.51646 14.4537 5.89871 12.8689 3.58517ZM5.68007 9.92433C4.98671 9.92433 4.42071 9.29466 4.42071 8.52353C4.42071 7.75233 4.97256 7.12266 5.68007 7.12266C6.38047 7.12266 6.95353 7.75233 6.9394 8.52353C6.9394 9.29466 6.38047 9.92433 5.68007 9.92433ZM10.3291 9.92433C9.63567 9.92433 9.06893 9.29466 9.06893 8.52353C9.06893 7.75233 9.62153 7.12266 10.3291 7.12266C11.0295 7.12266 11.6025 7.75233 11.5883 8.52353C11.5883 9.29466 11.0365 9.92433 10.3291 9.92433Z" fill="#82799E"/>
</svg>

<svg xmlns="http://www.w3.org/2000/svg" width="16" height="16" fill="none" viewBox="0 0 16 16"><path fill="#82799E" d="M12.869 3.585a11.6 11.6 0 0 0-2.894-.891c-.127.22-.269.516-.368.75a11 11 0 0 0-3.205 0 9 9 0 0 0-.368-.75c-1.019.17-1.988.474-2.895.891C1.307 6.288.812 8.927 1.06 11.53a11.8 11.8 0 0 0 3.546 1.776 8.6 8.6 0 0 0 .757-1.224 7.4 7.4 0 0 1-1.196-.573q.151-.107.29-.226c2.307 1.054 4.805 1.054 7.083 0 .099.078.19.155.29.226a7.4 7.4 0 0 1-1.196.573q.331.65.757 1.224a11.7 11.7 0 0 0 3.545-1.776c.305-3.014-.481-5.631-2.066-7.945m-7.19 6.34c-.693 0-1.26-.63-1.26-1.401 0-.772.553-1.401 1.26-1.401.7 0 1.274.63 1.26 1.4 0 .772-.56 1.401-1.26 1.401m4.65 0c-.694 0-1.261-.63-1.261-1.401 0-.772.553-1.401 1.26-1.401.7 0 1.273.63 1.26 1.4 0 .772-.553 1.401-1.26 1.401"/></svg>
